X:677
T:
N:Angläs.
S:Efter »Florsen» i Burs.
R:kadrilj
O:Gotland, Burs
M:2/4
L:1/16
K:D
A2|AdFG BA^GA|Agec dfAA|AdFG BA^GA|Agec d2:|
K:G
c2|B3c dfga|b3a a2g2|agfe e2d2|dBcA G2:|

